maps/states/NJ.svg

<?xml version="1.0" standalone="yes"?>
<svg xmlns="http://www.w3.org/2000/svg" version="1.2" id="root" viewBox="797.6893549171427 216.95295062867206 19.64990634249523 45.219220898893695"><g id="counties"><path id="county-34037" class="county feature" d="M807.6122270197293,218.73208277363517L806.2290324873024,221.26533535884835L804.8803237587916,224.7437606585279L803.3453562100774,225.2874693943245L799.8763164185715,222.54702167332948L799.5481154894433,222.6633185916471L800.8658707828774,218.79471558540592L802.4142693041185,216.95295062867206Z" style="fill: inherit; stroke: inherit; stroke-width: inherit;" vector-effect="non-scaling-stroke"><title>Sussex County</title></path><path id="county-34031" class="county feature" d="M812.4380554225189,224.96595676603238L810.1729330909332,223.99785496542484L809.2335070237825,222.26283503381126L806.2290324873024,221.26533535884835L807.6122270197293,218.73208277363517L809.6720680976216,219.34874558406125L809.9604978558004,219.46113005869654L809.652042123702,221.78131802685232L811.6683120079643,222.31821384488194Z" style="fill: inherit; stroke: inherit; stroke-width: inherit;" vector-effect="non-scaling-stroke"><title>Passaic County</title></path><path id="county-34003" class="county feature" d="M814.3960459152061,224.87576136597875L812.3470801480912,225.6366506397444L812.4380554225189,224.96595676603238L811.6683120079643,222.31821384488194L809.652042123702,221.78131802685232L809.9604978558004,219.46113005869654L814.7575653381787,220.9652729381412Z" style="fill: inherit; stroke: inherit; stroke-width: inherit;" vector-effect="non-scaling-stroke"><title>Bergen County</title></path><path id="county-34041" class="county feature" d="M803.3453562100774,225.2874693943245L802.1993063286188,227.9430967736556L801.4388595210964,229.60688127151263L798.896244730262,232.4671394295657L798.7294024981194,232.18188069318285L798.3703393984292,228.9915735796743L799.6641485394396,226.91653071026008L798.3015604130721,225.33479535334402L799.8763164185715,222.54702167332948Z" style="fill: inherit; stroke: inherit; stroke-width: inherit;" vector-effect="non-scaling-stroke"><title>Warren County</title></path><path id="county-34027" class="county feature" d="M810.1729330909332,223.99785496542484L809.3323224769111,223.97612669058663L809.484247871756,227.21519210435895L808.5430073642913,228.6912488481761L806.8880298334489,227.45140526191528L804.7388908988537,228.6930335774589L802.1993063286188,227.9430967736556L803.3453562100774,225.2874693943245L804.8803237587916,224.7437606585279L806.2290324873024,221.26533535884835L809.2335070237825,222.26283503381126Z" style="fill: inherit; stroke: inherit; stroke-width: inherit;" vector-effect="non-scaling-stroke"><title>Morris County</title></path><path id="county-34013" class="county feature" d="M810.1729330909332,223.99785496542484L812.4380554225189,224.96595676603238L812.3470801480912,225.6366506397444L812.9763152496139,226.49094372502304L812.6023639865332,227.50123999794255L809.484247871756,227.21519210435895L809.3323224769111,223.97612669058663Z" style="fill: inherit; stroke: inherit; stroke-width: inherit;" vector-effect="non-scaling-stroke"><title>Essex County</title></path><path id="county-34017" class="county feature" d="M814.3960459152061,224.87576136597875L813.9534383407167,227.63344746660061L813.009743840884,228.24655894776856L812.9763152496139,226.49094372502304L812.3470801480912,225.6366506397444Z" style="fill: inherit; stroke: inherit; stroke-width: inherit;" vector-effect="non-scaling-stroke"><title>Hudson County</title></path><path id="county-34019" class="county feature" d="M804.7388908988537,228.6930335774589L805.4663665581704,231.138232807701L804.9462625924612,232.8131351351832L805.6521254822687,234.18550257607512L804.4891262675364,235.944641805929L803.3194491957331,236.30516107633161L801.3482626393316,235.1961664757381L800.7785065050551,233.02159211040612L798.896244730262,232.4671394295657L801.4388595210964,229.60688127151263L802.1993063286188,227.9430967736556Z" style="fill: inherit; stroke: inherit; stroke-width: inherit;" vector-effect="non-scaling-stroke"><title>Hunterdon County</title></path><path id="county-34035" class="county feature" d="M808.5430073642913,228.6912488481761L808.8322446127931,230.08034174301713L808.1412392108939,231.0607387542758L809.3382108902715,232.04991145989334L807.6317399433115,234.6961579715345L805.6521254822687,234.18550257607512L804.9462625924612,232.8131351351832L805.4663665581704,231.138232807701L804.7388908988537,228.6930335774589L806.8880298334489,227.45140526191528Z" style="fill: inherit; stroke: inherit; stroke-width: inherit;" vector-effect="non-scaling-stroke"><title>Somerset County</title></path><path id="county-34039" class="county feature" d="M812.6023639865332,227.50123999794255L812.3366644233265,229.33388413357113L808.8322446127931,230.08034174301713L808.5430073642913,228.6912488481761L809.484247871756,227.21519210435895Z" style="fill: inherit; stroke: inherit; stroke-width: inherit;" vector-effect="non-scaling-stroke"><title>Union County</title></path><path id="county-34023" class="county feature" d="M812.3366644233265,229.33388413357113L811.8880720484829,231.50291860568484L812.7525309096637,232.0278467977124L811.1432178466887,235.70458625105346L810.0035890741517,236.4922089774277L807.8125154391354,235.6224047755062L807.6317399433115,234.6961579715345L809.3382108902715,232.04991145989334L808.1412392108939,231.0607387542758L808.8322446127931,230.08034174301713Z" style="fill: inherit; stroke: inherit; stroke-width: inherit;" vector-effect="non-scaling-stroke"><title>Middlesex County</title></path><path id="county-34025" class="county feature" d="M815.895041126463,237.63009250137623L813.8753059019934,238.2062662412668L813.3627768953494,237.34868345439372L811.4091022978131,237.7322453022632L809.7890950870872,239.90869138886148L809.0598331563518,238.9335929358616L810.0035890741517,236.4922089774277L811.1432178466887,235.70458625105346L812.7525309096637,232.0278467977124L815.9618028644359,232.0456400877331L816.7702040381154,233.90757852114814L816.8324813212571,237.79974667832028Z" style="fill: inherit; stroke: inherit; stroke-width: inherit;" vector-effect="non-scaling-stroke"><title>Monmouth County</title></path><path id="county-34021" class="county feature" d="M807.6317399433115,234.6961579715345L807.8125154391354,235.6224047755062L810.0035890741517,236.4922089774277L809.0598331563518,238.9335929358616L807.1403136680077,239.19554836403768L803.3194491957331,236.30516107633161L804.4891262675364,235.944641805929L805.6521254822687,234.18550257607512Z" style="fill: inherit; stroke: inherit; stroke-width: inherit;" vector-effect="non-scaling-stroke"><title>Mercer County</title></path><path id="county-34005" class="county feature" d="M809.0598331563518,238.9335929358616L809.7890950870872,239.90869138886148L813.3270113062736,244.98591118310276L813.8998147274968,248.98334011442455L813.8754123005706,249.0596481899587L810.2025653780008,248.47591957091083L808.7173549416093,246.90473016614055L806.1524572433145,246.30457846884406L805.3492532110454,244.62073163754712L803.2288311131538,243.10500958925445L803.1536559423523,243.0720531493838L804.1018362101597,241.7916867713642L807.1403136680077,239.19554836403768Z" style="fill: inherit; stroke: inherit; stroke-width: inherit;" vector-effect="non-scaling-stroke"><title>Burlington County</title></path><path id="county-34029" class="county feature" d="M815.895041126463,237.63009250137623L816.8770724986605,237.83396836925863L817.339261259638,243.33881524978074L816.5957731360007,241.19639744183917L816.1288773721947,244.90843103917086L816.8169874405864,245.54094919652334L814.8930707275199,248.6660936202337L813.8998147274968,248.98334011442455L813.3270113062736,244.98591118310276L809.7890950870872,239.90869138886148L811.4091022978131,237.7322453022632L813.3627768953494,237.34868345439372L813.8753059019934,238.2062662412668Z" style="fill: inherit; stroke: inherit; stroke-width: inherit;" vector-effect="non-scaling-stroke"><title>Ocean County</title></path><path id="county-34007" class="county feature" d="M808.7173549416093,246.90473016614055L807.2703080972401,249.58440621508316L804.7244624320703,247.79547892718153L802.5875036953797,245.30130329551935L803.2288311131538,243.10500958925445L805.3492532110454,244.62073163754712L806.1524572433145,246.30457846884406Z" style="fill: inherit; stroke: inherit; stroke-width: inherit;" vector-effect="non-scaling-stroke"><title>Camden County</title></path><path id="county-34015" class="county feature" d="M807.2703080972401,249.58440621508316L806.1542219002812,251.6409698932241L804.8630573284645,250.8918668016106L802.5366582288406,249.50941417723288L800.6824769922581,249.45796259076678L798.9013937029099,248.04454091167702L802.5875036953797,245.30130329551935L804.7244624320703,247.79547892718153Z" style="fill: inherit; stroke: inherit; stroke-width: inherit;" vector-effect="non-scaling-stroke"><title>Gloucester County</title></path><path id="county-34033" class="county feature" d="M800.8126322608654,255.3977449319001L800.7228604377772,255.3718796363895L800.8126322608654,255.3977449319001ZM804.8630573284645,250.8918668016106L805.0148014729701,253.00063632500428L802.4283198428907,251.61624653637818L800.6538009463908,255.32071510368564L798.4607574129285,253.699281328883L798.5193123980683,253.67922244319652L797.8224746530203,251.71401170217086L797.6893549171427,251.29639757118673L798.9013937029099,248.04454091167702L800.6824769922581,249.45796259076678L802.5366582288406,249.50941417723288Z" style="fill: inherit; stroke: inherit; stroke-width: inherit;" vector-effect="non-scaling-stroke"><title>Salem County</title></path><path id="county-34001" class="county feature" d="M813.8754123005706,249.0596481899587L814.8041076524934,252.57717095974476L811.6879628404641,254.74897010108498L808.6780409522564,254.76533234687724L808.3285780526821,252.8945640495824L806.1542219002812,251.6409698932241L807.2703080972401,249.58440621508316L808.7173549416093,246.90473016614055L810.2025653780008,248.47591957091083Z" style="fill: inherit; stroke: inherit; stroke-width: inherit;" vector-effect="non-scaling-stroke"><title>Atlantic County</title></path><path id="county-34011" class="county feature" d="M801.5434396805641,255.9470256189511L800.8126322608654,255.3977449319001L800.7228604377772,255.3718796363895L800.6538009463908,255.32071510368564L802.4283198428907,251.61624653637818L805.0148014729701,253.00063632500428L804.8630573284645,250.8918668016106L806.1542219002812,251.6409698932241L808.3285780526821,252.8945640495824L808.6780409522564,254.76533234687724L808.5332840092617,257.62510155197276L804.7162546479087,257.3670509339703Z" style="fill: inherit; stroke: inherit; stroke-width: inherit;" vector-effect="non-scaling-stroke"><title>Cumberland County</title></path><path id="county-34009" class="county feature" d="M811.6879628404641,254.74897010108498L812.1889607123142,255.34916769420443L811.0688355292584,260.47179558121763L810.2282275038183,261.8305286352029L808.7225663490565,262.17217152756575L809.0858609053736,259.1615701619519L808.5332840092617,257.62510155197276L808.6780409522564,254.76533234687724Z" style="fill: inherit; stroke: inherit; stroke-width: inherit;" vector-effect="non-scaling-stroke"><title>Cape May County</title></path></g><path id="counties-mesh" class="counties mesh" d="M803.3453562100774,225.2874693943245L802.1993063286188,227.9430967736556L801.4388595210964,229.60688127151263L798.896244730262,232.4671394295657L798.7294024981194,232.18188069318285L798.3703393984292,228.9915735796743L799.6641485394396,226.91653071026008L798.3015604130721,225.33479535334402L799.8763164185715,222.54702167332948M809.9604978558004,219.46113005869654L809.652042123702,221.78131802685232L811.6683120079643,222.31821384488194L812.4380554225189,224.96595676603238L810.1729330909332,223.99785496542484L809.2335070237825,222.26283503381126L806.2290324873024,221.26533535884835M807.6122270197293,218.73208277363517L806.2290324873024,221.26533535884835L804.8803237587916,224.7437606585279L803.3453562100774,225.2874693943245L799.8763164185715,222.54702167332948L799.5481154894433,222.6633185916471L800.8658707828774,218.79471558540592L802.4142693041185,216.95295062867206L807.6122270197293,218.73208277363517L809.6720680976216,219.34874558406125L809.9604978558004,219.46113005869654L814.7575653381787,220.9652729381412L814.3960459152061,224.87576136597875L812.3470801480912,225.6366506397444L812.4380554225189,224.96595676603238M810.1729330909332,223.99785496542484L809.3323224769111,223.97612669058663L809.484247871756,227.21519210435895L808.5430073642913,228.6912488481761L806.8880298334489,227.45140526191528L804.7388908988537,228.6930335774589L802.1993063286188,227.9430967736556M812.3470801480912,225.6366506397444L812.9763152496139,226.49094372502304L812.6023639865332,227.50123999794255L809.484247871756,227.21519210435895M814.3960459152061,224.87576136597875L813.9534383407167,227.63344746660061L813.009743840884,228.24655894776856L812.9763152496139,226.49094372502304M804.7388908988537,228.6930335774589L805.4663665581704,231.138232807701L804.9462625924612,232.8131351351832L805.6521254822687,234.18550257607512L804.4891262675364,235.944641805929L803.3194491957331,236.30516107633161L801.3482626393316,235.1961664757381L800.7785065050551,233.02159211040612L798.896244730262,232.4671394295657M808.5430073642913,228.6912488481761L808.8322446127931,230.08034174301713L808.1412392108939,231.0607387542758L809.3382108902715,232.04991145989334L807.6317399433115,234.6961579715345L805.6521254822687,234.18550257607512M812.6023639865332,227.50123999794255L812.3366644233265,229.33388413357113L808.8322446127931,230.08034174301713M809.7890950870872,239.90869138886148L813.3270113062736,244.98591118310276L813.8998147274968,248.98334011442455L813.8754123005706,249.0596481899587L810.2025653780008,248.47591957091083L808.7173549416093,246.90473016614055L806.1524572433145,246.30457846884406L805.3492532110454,244.62073163754712L803.2288311131538,243.10500958925445L803.1536559423523,243.0720531493838L804.1018362101597,241.7916867713642L807.1403136680077,239.19554836403768L803.3194491957331,236.30516107633161M812.3366644233265,229.33388413357113L811.8880720484829,231.50291860568484L812.7525309096637,232.0278467977124L811.1432178466887,235.70458625105346L810.0035890741517,236.4922089774277L807.8125154391354,235.6224047755062L807.6317399433115,234.6961579715345M812.7525309096637,232.0278467977124L815.9618028644359,232.0456400877331L816.7702040381154,233.90757852114814L816.8324813212571,237.79974667832028L815.895041126463,237.63009250137623L813.8753059019934,238.2062662412668L813.3627768953494,237.34868345439372L811.4091022978131,237.7322453022632L809.7890950870872,239.90869138886148L809.0598331563518,238.9335929358616L810.0035890741517,236.4922089774277M809.0598331563518,238.9335929358616L807.1403136680077,239.19554836403768M815.895041126463,237.63009250137623L816.8770724986605,237.83396836925863L817.339261259638,243.33881524978074L816.5957731360007,241.19639744183917L816.1288773721947,244.90843103917086L816.8169874405864,245.54094919652334L814.8930707275199,248.6660936202337L813.8998147274968,248.98334011442455M808.7173549416093,246.90473016614055L807.2703080972401,249.58440621508316L804.7244624320703,247.79547892718153L802.5875036953797,245.30130329551935L803.2288311131538,243.10500958925445M807.2703080972401,249.58440621508316L806.1542219002812,251.6409698932241L804.8630573284645,250.8918668016106L802.5366582288406,249.50941417723288L800.6824769922581,249.45796259076678L798.9013937029099,248.04454091167702L802.5875036953797,245.30130329551935M808.6780409522564,254.76533234687724L808.5332840092617,257.62510155197276L804.7162546479087,257.3670509339703L801.5434396805641,255.9470256189511L800.8126322608654,255.3977449319001L800.7228604377772,255.3718796363895L800.8126322608654,255.3977449319001M804.8630573284645,250.8918668016106L805.0148014729701,253.00063632500428L802.4283198428907,251.61624653637818L800.6538009463908,255.32071510368564L798.4607574129285,253.699281328883L798.5193123980683,253.67922244319652L797.8224746530203,251.71401170217086L797.6893549171427,251.29639757118673L798.9013937029099,248.04454091167702M813.8754123005706,249.0596481899587L814.8041076524934,252.57717095974476L811.6879628404641,254.74897010108498L808.6780409522564,254.76533234687724L808.3285780526821,252.8945640495824L806.1542219002812,251.6409698932241M800.7228604377772,255.3718796363895L800.6538009463908,255.32071510368564M811.6879628404641,254.74897010108498L812.1889607123142,255.34916769420443L811.0688355292584,260.47179558121763L810.2282275038183,261.8305286352029L808.7225663490565,262.17217152756575L809.0858609053736,259.1615701619519L808.5332840092617,257.62510155197276" style="fill: inherit; stroke: inherit; stroke-width: inherit;" vector-effect="non-scaling-stroke"></path></svg>

<svg xmlns="http://www.w3.org/2000/svg" version="1.2" id="root" viewBox="797.6893549171427 216.95295062867206 19.64990634249523 45.219220898893695"><g id="counties"><path id="county-34037" class="county feature" d="M807.612 218.732l-1.383 2.533-1.349 3.479-1.535.543-3.469-2.74-.328.116 1.318-3.868 1.548-1.842z" vector-effect="non-scaling-stroke" fill="inherit" stroke="inherit" stroke-width="inherit"><title>Sussex County</title></path><path id="county-34031" class="county feature" d="M812.438 224.966l-2.265-.968-.94-1.735-3.004-.998 1.383-2.533 2.06.617.288.112-.308 2.32 2.016.537z" vector-effect="non-scaling-stroke" fill="inherit" stroke="inherit" stroke-width="inherit"><title>Passaic County</title></path><path id="county-34003" class="county feature" d="M814.396 224.876l-2.049.76.091-.67-.77-2.648-2.016-.537.308-2.32 4.798 1.504z" vector-effect="non-scaling-stroke" fill="inherit" stroke="inherit" stroke-width="inherit"><title>Bergen County</title></path><path id="county-34041" class="county feature" d="M803.345 225.287l-1.146 2.656-.76 1.664-2.543 2.86-.167-.285-.359-3.19 1.294-2.075-1.362-1.582 1.574-2.788z" vector-effect="non-scaling-stroke" fill="inherit" stroke="inherit" stroke-width="inherit"><title>Warren County</title></path><path id="county-34027" class="county feature" d="M810.173 223.998l-.84-.022.151 3.24-.941 1.475-1.655-1.24-2.15 1.242-2.539-.75 1.146-2.656 1.535-.543 1.349-3.479 3.005.998z" vector-effect="non-scaling-stroke" fill="inherit" stroke="inherit" stroke-width="inherit"><title>Morris County</title></path><path id="county-34013" class="county feature" d="M810.173 223.998l2.265.968-.09.67.628.855-.374 1.01-3.118-.286-.152-3.239z" vector-effect="non-scaling-stroke" fill="inherit" stroke="inherit" stroke-width="inherit"><title>Essex County</title></path><path id="county-34017" class="county feature" d="M814.396 224.876l-.443 2.757-.943.614-.034-1.756-.629-.854z" vector-effect="non-scaling-stroke" fill="inherit" stroke="inherit" stroke-width="inherit"><title>Hudson County</title></path><path id="county-34019" class="county feature" d="M804.739 228.693l.727 2.445-.52 1.675.706 1.373-1.163 1.759-1.17.36-1.97-1.109-.57-2.174-1.883-.555 2.543-2.86.76-1.664z" vector-effect="non-scaling-stroke" fill="inherit" stroke="inherit" stroke-width="inherit"><title>Hunterdon County</title></path><path id="county-34035" class="county feature" d="M808.543 228.691l.29 1.39-.692.98 1.197.989-1.706 2.646-1.98-.51-.706-1.373.52-1.675-.727-2.445 2.149-1.242z" vector-effect="non-scaling-stroke" fill="inherit" stroke="inherit" stroke-width="inherit"><title>Somerset County</title></path><path id="county-34039" class="county feature" d="M812.602 227.501l-.265 1.833-3.505.746-.289-1.389.941-1.476z" vector-effect="non-scaling-stroke" fill="inherit" stroke="inherit" stroke-width="inherit"><title>Union County</title></path><path id="county-34023" class="county feature" d="M812.337 229.334l-.449 2.169.865.525-1.61 3.677-1.14.787-2.19-.87-.181-.926 1.706-2.646-1.197-.99.691-.98z" vector-effect="non-scaling-stroke" fill="inherit" stroke="inherit" stroke-width="inherit"><title>Middlesex County</title></path><path id="county-34025" class="county feature" d="M815.895 237.63l-2.02.576-.512-.857-1.954.383-1.62 2.177-.73-.975.945-2.442 1.14-.787 1.609-3.677 3.209.018.808 1.862.062 3.892z" vector-effect="non-scaling-stroke" fill="inherit" stroke="inherit" stroke-width="inherit"><title>Monmouth County</title></path><path id="county-34021" class="county feature" d="M807.632 234.696l.18.926 2.192.87-.944 2.442-1.92.262-3.82-2.89 1.17-.361 1.162-1.76z" vector-effect="non-scaling-stroke" fill="inherit" stroke="inherit" stroke-width="inherit"><title>Mercer County</title></path><path id="county-34005" class="county feature" d="M809.06 238.934l.73.975 3.537 5.077.573 3.997-.025.077-3.672-.584-1.486-1.571-2.565-.6-.803-1.684-2.12-1.516-.075-.033.948-1.28 3.038-2.596z" vector-effect="non-scaling-stroke" fill="inherit" stroke="inherit" stroke-width="inherit"><title>Burlington County</title></path><path id="county-34029" class="county feature" d="M815.895 237.63l.982.204.462 5.505-.743-2.143-.467 3.712.688.633-1.924 3.125-.993.317-.573-3.997-3.538-5.077 1.62-2.177 1.954-.383.512.857z" vector-effect="non-scaling-stroke" fill="inherit" stroke="inherit" stroke-width="inherit"><title>Ocean County</title></path><path id="county-34007" class="county feature" d="M808.717 246.905l-1.447 2.68-2.546-1.79-2.136-2.494.64-2.196 2.121 1.516.803 1.684z" vector-effect="non-scaling-stroke" fill="inherit" stroke="inherit" stroke-width="inherit"><title>Camden County</title></path><path id="county-34015" class="county feature" d="M807.27 249.584l-1.116 2.057-1.29-.75-2.327-1.382-1.855-.051-1.78-1.413 3.686-2.744 2.136 2.494z" vector-effect="non-scaling-stroke" fill="inherit" stroke="inherit" stroke-width="inherit"><title>Gloucester County</title></path><path id="county-34033" class="county feature" d="M800.813 255.398l-.09-.026.09.026zm4.05-4.506l.152 2.109-2.587-1.385-1.774 3.705-2.193-1.622.058-.02-.697-1.965-.133-.418 1.212-3.251 1.781 1.413 1.855.051z" vector-effect="non-scaling-stroke" fill="inherit" stroke="inherit" stroke-width="inherit"><title>Salem County</title></path><path id="county-34001" class="county feature" d="M813.875 249.06l.93 3.517-3.117 2.172-3.01.016-.35-1.87-2.174-1.254 1.116-2.057 1.447-2.68 1.486 1.572z" vector-effect="non-scaling-stroke" fill="inherit" stroke="inherit" stroke-width="inherit"><title>Atlantic County</title></path><path id="county-34011" class="county feature" d="M801.543 255.947l-.73-.55-.09-.025-.07-.051 1.775-3.705 2.587 1.385-.152-2.11 1.291.75 2.175 1.254.349 1.87-.145 2.86-3.817-.258z" vector-effect="non-scaling-stroke" fill="inherit" stroke="inherit" stroke-width="inherit"><title>Cumberland County</title></path><path id="county-34009" class="county feature" d="M811.688 254.749l.501.6-1.12 5.123-.84 1.359-1.506.341.363-3.01-.553-1.537.145-2.86z" vector-effect="non-scaling-stroke" fill="inherit" stroke="inherit" stroke-width="inherit"><title>Cape May County</title></path></g><path id="counties-mesh" class="counties mesh" d="M803.345 225.287l-1.146 2.656-.76 1.664-2.543 2.86-.167-.285-.359-3.19 1.294-2.075-1.362-1.582 1.574-2.788m10.084-3.086l-.308 2.32 2.016.537.77 2.648-2.265-.968-.94-1.735-3.004-.998m1.383-2.533l-1.383 2.533-1.349 3.479-1.535.543-3.469-2.74-.328.116 1.318-3.868 1.548-1.842 5.198 1.78 2.06.616.288.112 4.798 1.504-.362 3.91-2.049.762.091-.671m-2.265-.968l-.84-.022.151 3.24-.941 1.475-1.655-1.24-2.15 1.242-2.539-.75m10.148-2.306l.63.854-.375 1.01-3.118-.286m4.912-2.34l-.443 2.758-.943.614-.034-1.756m-8.237 2.202l.727 2.445-.52 1.675.706 1.373-1.163 1.759-1.17.36-1.97-1.109-.57-2.174-1.883-.555m9.647-3.776l.29 1.39-.692.98 1.197.989-1.706 2.646-1.98-.51m6.95-6.685l-.265 1.833-3.505.746m.957 9.829l3.538 5.077.573 3.997-.025.077-3.672-.584-1.486-1.571-2.565-.6-.803-1.684-2.12-1.516-.075-.033.948-1.28 3.038-2.596-3.82-2.89m9.017-6.972l-.449 2.169.865.525-1.61 3.677-1.14.787-2.19-.87-.181-.926m5.12-2.668l3.21.018.808 1.862.062 3.892-.937-.17-2.02.576-.512-.857-1.954.383-1.62 2.177-.73-.975.945-2.442m-.944 2.442l-1.92.262m8.755-1.566l.982.204.462 5.505-.743-2.143-.467 3.712.688.633-1.924 3.125-.993.317m-5.183-2.078l-1.447 2.68-2.546-1.79-2.136-2.494.64-2.196m4.042 6.48l-1.116 2.056-1.29-.75-2.327-1.382-1.855-.051-1.78-1.413 3.686-2.744m6.09 9.464l-.145 2.86-3.817-.258-3.173-1.42-.73-.55-.09-.025.09.026m4.05-4.506l.152 2.109-2.587-1.385-1.774 3.705-2.193-1.622.058-.02-.697-1.965-.133-.418 1.212-3.251m14.974 1.015l.93 3.517-3.117 2.172-3.01.016-.35-1.87-2.174-1.254m-5.431 3.73l-.07-.05m11.035-.572l.501.6-1.12 5.123-.84 1.359-1.506.341.363-3.01-.553-1.537" vector-effect="non-scaling-stroke" fill="inherit" stroke="inherit" stroke-width="inherit"/></svg>
